X:497
T:Polska efter Axel Axelsson
S:efter Axel Axelsson
B:Sörmlands musikarkiv - Olof Anderssons uppteckningar 1936, nr 497
O:Husby, Södermanland
R:Slängpolska
Q: 120
M:3/4
L:1/16
K: C
|:G2GF E2EF G2G2 | A2A2 B2dB c4 | G4 f2d2 e2c2 | cBce dcBA GFEF
| G2GF E2EF G2G2 | A2A2 B2dB c4 | G4 f2d2 e2c2 | edBd d4 c4 :|
| ecGc ecGc e2e2 | dBGB dBGB f4 | ecGc ecGc e2e2 | dBGB dBGB f4
| cBAB cBAB cBAB | cBAG A2G2 G4 | AFCF AFCF A2A2 | GECE

